svgs/sharp-light/hotel.svg

<svg xmlns="http://www.w3.org/2000/svg" viewBox="0 0 512 512"><!--! Font Awesome Pro 6.6.0 by @fontawesome - https://fontawesome.com License - https://fontawesome.com/license (Commercial License) Copyright 2024 Fonticons, Inc. --><path d="M512 0L0 0 0 32l32 0 0 448L0 480l0 32 208 0 16 0 64 0 16 0 208 0 0-32-32 0 0-448 32 0 0-32zM272 480l-32 0 0-64 32 0 0 64zm32-80l0-16-16 0-64 0-16 0 0 16 0 80L64 480 64 32l384 0 0 448-144 0 0-80zM320 64l0 16 0 64 0 16 16 0 64 0 16 0 0-16 0-64 0-16-16 0-64 0-16 0zm32 32l32 0 0 32-32 0 0-32zM224 64l-16 0 0 16 0 64 0 16 16 0 64 0 16 0 0-16 0-64 0-16-16 0-64 0zm16 64l0-32 32 0 0 32-32 0zm-32 64l0 16 0 64 0 16 16 0 64 0 16 0 0-16 0-64 0-16-16 0-64 0-16 0zm32 32l32 0 0 32-32 0 0-32zm96-32l-16 0 0 16 0 64 0 16 16 0 64 0 16 0 0-16 0-64 0-16-16 0-64 0zm16 64l0-32 32 0 0 32-32 0zM96 64l0 16 0 64 0 16 16 0 64 0 16 0 0-16 0-64 0-16-16 0-64 0L96 64zm32 32l32 0 0 32-32 0 0-32zm-16 96l-16 0 0 16 0 64 0 16 16 0 64 0 16 0 0-16 0-64 0-16-16 0-64 0zm16 64l0-32 32 0 0 32-32 0zm68.4 122.7C211 362.3 232.3 352 256 352s45 10.3 59.6 26.7l23.8-21.3C319 334.4 289.2 320 256 320s-63 14.4-83.5 37.3l23.8 21.3z"/></svg>

<svg xmlns="http://www.w3.org/2000/svg" viewBox="0 0 512 512"><!--! Font Awesome Pro 6.4.0 by @fontawesome - https://fontawesome.com License - https://fontawesome.com/license (Commercial License) Copyright 2023 Fonticons, Inc. --><path d="M512 0H0V32H32V480H0v32H208h16 64 16H512V480H480V32h32V0zM272 480H240V416h32v64zm32-80V384H288 224 208v16 80H64V32H448V480H304V400zM320 64V80v64 16h16 64 16V144 80 64H400 336 320zm32 32h32v32H352V96zM224 64H208V80v64 16h16 64 16V144 80 64H288 224zm16 64V96h32v32H240zm-32 64v16 64 16h16 64 16V272 208 192H288 224 208zm32 32h32v32H240V224zm96-32H320v16 64 16h16 64 16V272 208 192H400 336zm16 64V224h32v32H352zM96 64V80v64 16h16 64 16V144 80 64H176 112 96zm32 32h32v32H128V96zm-16 96H96v16 64 16h16 64 16V272 208 192H176 112zm16 64V224h32v32H128zm68.4 122.7C211 362.3 232.3 352 256 352s45 10.3 59.6 26.7l23.8-21.3C319 334.4 289.2 320 256 320s-63 14.4-83.5 37.3l23.8 21.3z"/></svg>
